!!!!SEGMENT: pl-cz--iii-323--002_namieyski-jan--sinfonia-d-menuetto.krn
!!!cenid: 17xx:995
!!!COM: Namieyski, Jan
!!!COM-rismid: pe30017685
!!!CDT: <1750->1799
!!!CNT: Polish
!!!OPR: Sinfonia D
!!!OTL: Menuetto
!!!OMV: 002
!!!PDT:
!!!AGN: Secular
!!!SMS-siglum: PL-CZ
!!!SMS-shelfmark: III-323
!!!SMS-shelfwork: 001-002 M
!!!SMS-variant:
!!!SMS-altvar:
!!!NIFC-rismid: 300000906
!!!URL-scan: http://repozytorium.nifc.pl/skany/pl-cz-nut--iii-323
!!!ONB-nifc: UWAGA: części Sinfonii: Allegro moderato, Menuetto (002), Thaema (z wariacjami), Menuetto (004), Allegro
!!!AIN: 1 cello 2 clars 2 cor 2 flt 1 viola 2 violn
!!!key: D
**kern	**dynam	**kern	**dynam	**kern	**dynam	**kern	**dynam	**kern	**dynam	**kern	**kern	**dynam	**kern	**dynam	**kern	**dynam	**kern	**dynam
*group3	*	*group3	*	*group3	*	*group3	*	*group2	*	*group2	*group1	*	*group1	*	*group1	*	*group1	*
*part10	*part10	*part9	*part9	*part8	*part8	*part7	*part7	*part6	*part6	*part5	*part4	*part4	*part3	*part3	*part2	*part2	*part1	*part1
*staff10	*	*staff9	*	*staff8	*	*staff7	*	*staff6	*	*staff5	*staff4	*	*staff3	*	*staff2	*	*staff1	*
*I"Baſso	*	*I"Viola. Oblig	*	*I"Violino Secundo.	*	*I"Violino Primo.	*	*I"Cornu Secundo in D:	*	*I"Cornu Primo in. D##.	*I"Clarinetto Secudo in A:	*	*I"Clarinetto Primo in A.	*	*I"Flauto Secundo	*	*I"Flauto Primo.	*
*I'vlc	*	*I'vla obl.	*	*I'vl 2	*	*I'vl 1	*	*I'cor 2 in D	*	*I'cor 1 in D	*I'cl 2 in A	*	*I'cl 1 in A	*	*I'fl 2	*	*I'fl 1	*
*Icello	*	*Iviola	*	*Ivioln	*	*Ivioln	*	*Icor	*	*Icor	*Iclars	*	*Iclars	*	*Iflt	*	*Iflt	*
*ICstr	*	*ICstr	*	*ICstr	*	*ICstr	*	*ICbras	*	*ICbras	*ICww	*	*ICww	*	*ICww	*	*ICww	*
*>[A,A,B,C,C,D,D,A,A,B]	*>[A,A,B,C,C,D,D,A,A,B]	*>[A,A,B,C,C,D,D,A,A,B]	*>[A,A,B,C,C,D,D,A,A,B]	*>[A,A,B,C,C,D,D,A,A,B]	*>[A,A,B,C,C,D,D,A,A,B]	*>[A,A,B,C,C,D,D,A,A,B]	*>[A,A,B,C,C,D,D,A,A,B]	*>[A,A,B,C,C,D,D,A,A,B]	*>[A,A,B,C,C,D,D,A,A,B]	*>[A,A,B,C,C,D,D,A,A,B]	*>[A,A,B,C,C,D,D,A,A,B]	*>[A,A,B,C,C,D,D,A,A,B]	*>[A,A,B,C,C,D,D,A,A,B]	*>[A,A,B,C,C,D,D,A,A,B]	*>[A,A,B,C,C,D,D,A,A,B]	*>[A,A,B,C,C,D,D,A,A,B]	*>[A,A,B,C,C,D,D,A,A,B]	*>[A,A,B,C,C,D,D,A,A,B]
*>A	*>A	*>A	*>A	*>A	*>A	*>A	*>A	*>A	*>A	*>A	*>A	*>A	*>A	*>A	*>A	*>A	*>A	*>A
*clefF4	*	*clefC3	*	*clefG2	*	*clefG2	*	*clefG2	*	*clefG2	*clefG2	*	*clefG2	*	*clefG2	*	*clefG2	*
*	*	*	*	*	*	*	*	*ITrd-1c-2	*	*ITrd-1c-2	*ITrd2c3	*	*ITrd2c3	*	*	*	*	*
*k[c#f#]	*	*k[c#f#]	*	*k[c#f#]	*	*k[c#f#]	*	*k[f#c#]	*	*k[f#c#]	*k[f#c#]	*	*k[f#c#]	*	*k[c#f#]	*	*k[f#c#]	*
*D:	*	*D:	*	*D:	*	*D:	*	*D:	*	*D:	*D:	*	*D:	*	*D:	*	*D:	*
*M3/4	*	*M3/4	*	*M3/4	*	*M3/4	*	*M3/4	*	*M3/4	*M3/4	*	*M3/4	*	*M3/4	*	*M3/4	*
=	=	=	=	=	=	=	=	=	=	=	=	=	=	=	=	=	=	=
!	!	!	!	!	!LO:DY:b:t=pia	!	!LO:DY:a:t=pia	!	!	!	!	!	!	!	!	!	!	!
4r	.	4r	.	8f#/L	p	(8ff#\L	p	4r	.	4r	4r	.	4r	.	4r	.	4r	.
.	.	.	.	8e/J	.	8ee\J)	.	.	.	.	.	.	.	.	.	.	.	.
=1	=1	=1	=1	=1	=1	=1	=1	=1	=1	=1	=1	=1	=1	=1	=1	=1	=1	=1
!	!LO:DY:b:t=pia	!	!LO:DY:b:t=p&colon;	!	!	!	!	!	!	!	!	!	!	!	!	!	!	!
4D\	p	4f#\	p	4d/	.	4dd\	.	2.r	.	2.r	2.r	.	2.r	.	2.r	.	2.r	.
4r	.	4r	.	4e/	.	4ee\	.	.	.	.	.	.	.	.	.	.	.	.
4A\	.	4d\	.	4f#/	.	4ff#\	.	.	.	.	.	.	.	.	.	.	.	.
=2	=2	=2	=2	=2	=2	=2	=2	=2	=2	=2	=2	=2	=2	=2	=2	=2	=2	=2
*	*	*2\right	*	*	*	*2\right	*	*	*	*	*	*	*	*	*	*	*	*
!	!	!	!	!	!	!	!	!	!	!	!	!	!	!LO:DY:a:t=for&colon;	!	!	!	!
4F#\	.	2f#\	.	2d/	.	2dd\	.	4r	.	4r	4r	.	4r	f	4r	.	4r	.
4D\	.	.	.	.	.	.	.	4r	.	4r	4r	.	4r	.	4r	.	4r	.
!	!	!	!	!	!	!	!	!	!	!	!	!LO:DY:a:rj:t=for.	!	!	!	!LO:DY:b:t=for	!	!LO:DY:b:t=fo&colon;
4r	.	8c#\L	.	8e/L	.	(8ee\L	.	8a/L	.	8ee\L	8cc#\L	f	8ee\L	.	8cc#\L	f	8ee\L	f
.	.	8d\J	.	8f#/J	.	8ff#\J)	.	8dd/J	.	8ff#\J	8dd\J	.	8ff#\J	.	8dd\J	.	8ff#\J	.
=3	=3	=3	=3	=3	=3	=3	=3	=3	=3	=3	=3	=3	=3	=3	=3	=3	=3	=3
!	!LO:DY:a:t=for	!	!	!	!	!	!LO:DY:b:t=for	!	!	!	!	!	!	!	!	!	!	!
4AA/	f	4e\	.	4g/	.	4gg\	f	4ee\	.	4gg\	4ee\	.	4gg\	.	4ee\	.	4gg\	.
!	!	!	!	!	!LO:DY:a:t=for&colon;	!	!	!	!	!	!	!	!	!	!	!	!	!
4C#/	.	4e\	.	4g/	f	4gg\	.	4ee\	.	4gg\	4ee\	.	4gg\	.	4ee\	.	4gg\	.
4AA/	.	4e\	.	4g/	.	4gg\	.	4ee\	.	4gg\	4ee\	.	4gg\	.	4ee\	.	4gg\	.
!	!	!	!	!	!	!	!	!	!	!	!	!	!LO:LB:g=original	!	!	!	!	!
=4	=4	=4	=4	=4	=4	=4	=4	=4	=4	=4	=4	=4	=4	=4	=4	=4	=4	=4
4D\	.	4e\	.	4g/	.	4gg\	.	4ee\	.	4gg\	4ee\	.	4gg\	.	4ee\	.	4gg\	.
4d\	.	4d\	.	4f#/	.	4ff#\	.	4dd\	.	4ff#\	4dd\	.	4ff#\	.	4dd\	.	4ff#\	.
!	!	!	!	!	!LO:DY:a:t=pia	!	!LO:DY:b:t=p&colon;	!	!	!	!	!	!	!	!	!	!	!
4r	.	4r	.	8d/L	p	(8dd\L	p	4r	.	4r	4r	.	4r	.	4r	.	4r	.
.	.	.	.	8e/J	.	8ee\J)	.	.	.	.	.	.	.	.	.	.	.	.
!	!	!	!	!LO:LB:g=original	!	!	!	!	!	!	!	!	!	!	!	!	!	!
=5	=5	=5	=5	=5	=5	=5	=5	=5	=5	=5	=5	=5	=5	=5	=5	=5	=5	=5
!	!	!	!	!	!	!	!	!	!	!	!	!	!LO:TX:a:t=1.	!	!	!	!	!
4D\	.	4d\	.	4f#/	.	4ff#\	.	1.r	.	1.r	2.r	.	2.r	.	2.r	.	2.r	.
4d\	.	4d\	.	4f#/	.	4ff#\	.	.	.	.	.	.	.	.	.	.	.	.
4B\	.	4B\	.	4g#X/	.	4gg#X\	.	.	.	.	.	.	.	.	.	.	.	.
!LO:LB:g=original	!	!	!	!	!	!LO:LB:g=original	!	!	!	!	!	!	!	!	!	!	!	!
=6	=6	=6	=6	=6	=6	=6	=6	=6	=6	=6	=6	=6	=6	=6	=6	=6	=6	=6
4c#\	.	2c#\	.	2a/	.	2aa\	.	.	.	.	4r	.	4r	.	4r	.	4r	.
4A\	.	.	.	.	.	.	.	.	.	.	4r	.	4r	.	4r	.	4r	.
!	!	!	!	!	!	!LO:SIC:v:s=(8gg#\L	!LO:DY:b:t=for	!	!	!	!	!LO:DY:b:t=for.	!	!	!	!	!	!
4r	.	4r	.	8g#X/L	.	(8gg\L	f	.	.	.	8gg#\L	f	8gg#\L	.	8gg#X\L	.	8gg#X\L	.
.	.	.	.	8a/J	.	8aa\J)	.	.	.	.	8aa\J	.	8aa\J	.	8aa\J	.	8aa\J	.
=7	=7	=7	=7	=7	=7	=7	=7	=7	=7	=7	=7	=7	=7	=7	=7	=7	=7	=7
!	!	!	!	!	!	!	!	!	!	!	!LO:SIC:v:s=8gg#\L	!	!	!	!LO:SIC:v:s=4gg#\	!	!	!
4E\	.	4g#X\	.	4b\	.	4bb\	.	4r	.	4r	8gg\L	.	4bb\	.	4gg\	.	4bb\	.
!	!	!	!	!	!	!	!	!	!	!	!LO:SIC:v:s=8gg#\J	!	!	!	!	!	!	!
.	.	.	.	.	.	.	.	.	.	.	8gg\J	.	.	.	.	.	.	.
!	!	!	!	!	!	!	!	!	!	!	!	!	!	!LO:SIC:v:s=4gg#\	!	!	!	!
4G#X\	.	4g#\	.	4b\	.	4bb\	.	4ee\	.	4ee\	8aa\L	.	4bb\	.	4gg\	.	4bb\	.
.	.	.	.	.	.	.	.	.	.	.	8aa\J	.	.	.	.	.	.	.
4E\	.	4g#\	.	8b\L	.	(8bb\L	.	4ee\	.	4ee\	4ryy	.	8bb\L	.	8aa\L	.	8bb\L	.
.	.	.	.	8cc#\J	.	8ccc#\J)	.	.	.	.	.	.	8ccc#\J	.	8aa\J	.	8ccc#\J	.
!	!	!LO:PB:g=original	!	!	!	!	!	!	!	!	!	!	!	!	!	!	!	!
=8	=8	=8	=8	=8	=8	=8	=8	=8	=8	=8	=8	=8	=8	=8	=8	=8	=8	=8
4A\	.	4c#\	.	4a/	.	4aa'\	.	4a/	.	4ee\	4aa\	.	4aa\	.	4aa\	.	4aa\	.
!	!	!	!	!	!	!	!	!	!	!	!LO:N:vis=4	!	!	!	!	!	!	!
4AA/	.	4r	.	4r	.	4r	.	4r	.	4r	8r	.	4r	.	4r	.	4r	.
!	!	!	!	!	!	!	!	!	!	!	!LO:N:vis=4	!	!	!	!	!	!	!
.	.	.	.	.	.	.	.	.	.	.	8r	.	.	.	.	.	.	.
!	!	!	!	!	!	!	!	!	!	!LO:PB:g=original	!LO:LB:g=original	!	!	!	!	!	!	!
=:|!|:	=:|!|:	=:|!|:	=:|!|:	=:|!|:	=:|!|:	=:|!|:	=:|!|:	=:|!|:	=:|!|:	=:|!|:	=:|!|:	=:|!|:	=:|!|:	=:|!|:	=:|!|:	=:|!|:	=:|!|:	=:|!|:
*>B	*>B	*>B	*>B	*>B	*>B	*>B	*>B	*>B	*>B	*>B	*>B	*>B	*>B	*>B	*>B	*>B	*>B	*>B
!	!	!	!	!	!LO:DY:b:t=pia	!	!LO:DY:b:t=pia	!	!	!	!	!LO:DY:b:t=p&colon;	!	!	!	!	!	!LO:DY:b:t=pia
4r	.	4r	.	8d/L	p	8f#/L	p	4r	.	4r	8dd\L	p	8ff#\L	.	8dd\L	.	8ff#\L	p
.	.	.	.	8e/J	.	8g/J	.	.	.	.	8ee\J	.	8gg\J	.	8ee\J	.	8gg\J	.
!	!	!	!	!	!	!	!	!	!	!	!	!	!	!	!LO:LB:g=original	!	!LO:LB:g=original	!
=9	=9	=9	=9	=9	=9	=9	=9	=9	=9	=9	=9	=9	=9	=9	=9	=9	=9	=9
!	!LO:DY:b:t=pia	!	!	!	!	!	!	!	!	!	!	!	!	!	!	!	!	!
4D\	p	4A/	.	4f#/	.	4a/	.	2.r	.	2.r	4ff#\	.	4aa\	.	4ff#\	.	4aa\	.
4d\	.	4A/	.	4f#/	.	4a/	.	.	.	.	4ff#\	.	4aa\	.	4ff#\	.	4aa\	.
4A\	.	4r	.	4e/	.	4g/	.	.	.	.	4ee\	.	4gg\	.	4ee\	.	4gg\	.
=10	=10	=10	=10	=10	=10	=10	=10	=10	=10	=10	=10	=10	=10	=10	=10	=10	=10	=10
4D/	.	4A/	.	4d/	.	4f#/	.	4r	.	4r	4dd\	.	4ff#\	.	4dd\	.	4ff#\	.
4AA/	.	4A/	.	4c#/	.	4e/	.	4r	.	4r	4cc#\	.	4ee\	.	4cc#\	.	4ee\	.
!	!	!	!	!	!	!	!	!	!	!LO:SIC:v:s=8ff#\L	!	!	!	!	!	!	!	!
4r	.	4r	.	4r	.	4r	.	8dd\L	.	8ee\L	4r	.	4r	.	4r	.	4r	.
!	!	!	!	!	!	!	!	!	!	!LO:SIC:v:s=8gg\J	!	!	!	!	!	!	!	!
.	.	.	.	.	.	.	.	8ee\J	.	8ff#\J	.	.	.	.	.	.	.	.
=11	=11	=11	=11	=11	=11	=11	=11	=11	=11	=11	=11	=11	=11	=11	=11	=11	=11	=11
!	!	!	!	!	!	!	!	!	!	!	!LO:TX:a:t=7	!	!	!	!LO:TX:a:t=9:color=blue:problem=pauzy rozpisane na 7 taktów	!	!LO:TX:a:t=7	!
4D\	.	1.r	.	2.r	.	2.r	.	4ff#\	.	4aa\	0.r	.	0.r	.	0.r	.	0.r	.
4F#\	.	.	.	.	.	.	.	4ff#\	.	4aa\	.	.	.	.	.	.	.	.
4AA/	.	.	.	.	.	.	.	4ee\	.	4gg\	.	.	.	.	.	.	.	.
=12	=12	=12	=12	=12	=12	=12	=12	=12	=12	=12	=12	=12	=12	=12	=12	=12	=12	=12
4D\	.	.	.	4r	.	4r	.	4dd\	.	4ff#\	.	.	.	.	.	.	.	.
4AA/	.	.	.	4r	.	4r	.	4a/	.	4ee\	.	.	.	.	.	.	.	.
!	!	!	!	!	!LO:DY:a:t=pia	!	!	!	!	!	!	!	!	!	!	!	!	!
4r	.	.	.	8A/L	p	8a\L	.	4r	.	4r	.	.	.	.	.	.	.	.
!	!	!	!	!	!	!	!LO:DY:b:t=pia	!	!	!	!	!	!	!	!	!	!	!
.	.	.	.	8cn/J	.	8ccn\J	p	.	.	.	.	.	.	.	.	.	.	.
!	!	!	!	!LO:LB:g=original	!	!	!	!	!	!	!	!	!	!	!	!	!	!
=13	=13	=13	=13	=13	=13	=13	=13	=13	=13	=13	=13	=13	=13	=13	=13	=13	=13	=13
!	!	!	!LO:DY:b:t=pia	!	!	!	!	!LO:TX:a:t=5:color=grey	!	!LO:TX:a:t=5:color=grey	!	!	!	!	!	!	!	!
4GG/	.	4f#\	p	4B/	.	4b\	.	0.r	.	0.r	.	.	.	.	.	.	.	.
4G\	.	4g\	.	4B/	.	4b\	.	.	.	.	.	.	.	.	.	.	.	.
4F#X\	.	4a\	.	4cn/	.	4ccn\	.	.	.	.	.	.	.	.	.	.	.	.
!LO:LB:g=original	!	!	!	!	!	!LO:LB:g=original	!	!	!	!	!	!	!	!	!	!	!	!
=14	=14	=14	=14	=14	=14	=14	=14	=14	=14	=14	=14	=14	=14	=14	=14	=14	=14	=14
4G\	.	2g\	.	2B/	.	2b\	.	.	.	.	.	.	.	.	.	.	.	.
4GG/	.	.	.	.	.	.	.	.	.	.	.	.	.	.	.	.	.	.
4r	.	4r	.	8B/L	.	8b\L	.	.	.	.	.	.	.	.	.	.	.	.
.	.	.	.	8d/J	.	8dd\J	.	.	.	.	.	.	.	.	.	.	.	.
=15	=15	=15	=15	=15	=15	=15	=15	=15	=15	=15	=15	=15	=15	=15	=15	=15	=15	=15
4AA/	.	4a\	.	4c#X/	.	4cc#X\	.	.	.	.	1.r	.	1.r	.	1.r	.	1.r	.
4A\	.	4a\	.	4c#/	.	4cc#\	.	.	.	.	.	.	.	.	.	.	.	.
4G#X\	.	4b\	.	4d/	.	4dd\	.	.	.	.	.	.	.	.	.	.	.	.
=16	=16	=16	=16	=16	=16	=16	=16	=16	=16	=16	=16	=16	=16	=16	=16	=16	=16	=16
4A\	.	2a\	.	2c#/	.	2cc#\	.	.	.	.	.	.	.	.	.	.	.	.
4AA/	.	.	.	.	.	.	.	.	.	.	.	.	.	.	.	.	.	.
.	.	.	.	.	.	16qqgg/	.	.	.	.	.	.	.	.	.	.	.	.
4r	.	4r	.	8f#/L	.	8ff#\L	.	.	.	.	.	.	.	.	.	.	.	.
.	.	.	.	8e/J	.	8ee\J	.	.	.	.	.	.	.	.	.	.	.	.
=17	=17	=17	=17	=17	=17	=17	=17	=17	=17	=17	=17	=17	=17	=17	=17	=17	=17	=17
4D\	.	4f#\	.	4d/	.	4dd\	.	2.r	.	2.r	2.r	.	2.r	.	2.r	.	2.r	.
4r	.	4r	.	4e/	.	4ee\	.	.	.	.	.	.	.	.	.	.	.	.
4A\	.	4d\	.	4f#/	.	4ff#\	.	.	.	.	.	.	.	.	.	.	.	.
!	!	!LO:LB:g=original	!	!	!	!	!	!	!	!	!	!	!LO:LB:g=original	!	!	!	!	!
=18	=18	=18	=18	=18	=18	=18	=18	=18	=18	=18	=18	=18	=18	=18	=18	=18	=18	=18
!	!	!LO:SIC:v:s=2d\	!	!	!	!	!	!	!	!	!	!	!	!	!	!	!	!
4F#\	.	2e\	.	2d/	.	2dd\	.	4r	.	4r	4r	.	4r	.	4r	.	4r	.
4D\	.	.	.	.	.	.	.	4r	.	4r	4r	.	4r	.	4r	.	4r	.
!	!	!	!	!	!LO:DY:a:t=for	!	!	!	!	!	!	!	!	!	!	!	!	!
4r	.	8d\L	.	8e/L	f	(8ee\L	.	8a/L	.	8ee\L	8cc#\L	f	8ee\L	.	8cc#\L	.	8ee\L	.
.	.	8d\J	.	8f#/J	.	8ff#\J)	.	8dd/J	.	8ff#\J	8dd\J	.	8ff#\J	.	8dd\J	.	8ff#\J	.
!	!	!	!	!	!	!	!	!LO:LB:g=original	!	!	!	!	!	!	!	!	!	!
=19	=19	=19	=19	=19	=19	=19	=19	=19	=19	=19	=19	=19	=19	=19	=19	=19	=19	=19
!	!LO:DY:a:t=for&colon;	!	!LO:DY:b:t=for	!	!	!	!LO:DY:b:t=for	!	!	!	!	!	!	!	!	!	!	!
4AA/	f	4e'\	f	4g/	.	4gg'\	f	4ee\	.	4gg\	4ee\	.	4gg\	.	4ee\	.	4gg\	.
4C#/	.	4e'\	.	4g/	.	4gg'\	.	4ee\	.	4gg\	4ee\	.	4gg\	.	4ee\	.	4gg\	.
4AA/	.	4e'\	.	4g/	.	4gg'\	.	4ee\	.	4gg\	4ee\	.	4gg\	.	4ee\	.	4gg\	.
=20	=20	=20	=20	=20	=20	=20	=20	=20	=20	=20	=20	=20	=20	=20	=20	=20	=20	=20
4D\	.	4e\	.	4g/	.	4gg\	.	4ee\	.	4gg\	4ee\	.	4gg\	.	4ee\	.	4gg\	.
4d\	.	4d\	.	4f#/	.	4ff#\	.	4dd\	.	4ff#\	4dd\	.	4ff#\	.	4dd\	.	4ff#\	.
!	!	!	!	!	!LO:DY:b:t=pia	!	!LO:DY:b:t=pia	!	!	!	!	!	!	!	!	!	!	!
4r	.	4r	.	8a/L	p	(8aa\L	p	4r	.	4r	4r	.	4r	.	4r	.	4r	.
.	.	.	.	8f#/J	.	8ff#\J)	.	.	.	.	.	.	.	.	.	.	.	.
!	!	!	!	!LO:LB:g=original	!	!	!	!	!	!	!	!	!	!	!	!	!	!
=21	=21	=21	=21	=21	=21	=21	=21	=21	=21	=21	=21	=21	=21	=21	=21	=21	=21	=21
!	!LO:DY:a:t=pia	!	!LO:DY:b:t=pia	!	!	!	!	!LO:TX:a:t=4	!	!LO:TX:a:t=4:color=grey	!	!	!LO:TX:a:t=4	!	!LO:TX:a:t=4	!	!LO:TX:a:t=4:color=blue	!
4D\	p	4a\	p	4cn/	.	4ccn\	.	0.r	.	0.r	0.r	.	0.r	.	0.r	.	0.r	.
4F#\	.	4a\	.	4c/	.	4cc\	.	.	.	.	.	.	.	.	.	.	.	.
4D\	.	4a\	.	4c/	.	4cc\	.	.	.	.	.	.	.	.	.	.	.	.
!	!	!	!	!	!	!LO:LB:g=original	!	!	!	!	!	!	!	!	!	!	!	!
=22	=22	=22	=22	=22	=22	=22	=22	=22	=22	=22	=22	=22	=22	=22	=22	=22	=22	=22
4G\	.	4a\	.	4c#/	.	(4cc#\	.	.	.	.	.	.	.	.	.	.	.	.
4GG/	.	4g\	.	4B/	.	4b\)	.	.	.	.	.	.	.	.	.	.	.	.
4r	.	4r	.	4g/	.	4gg'\	.	.	.	.	.	.	.	.	.	.	.	.
!LO:LB:g=original	!	!	!	!	!	!	!	!	!	!	!	!	!	!	!	!	!	!
=23	=23	=23	=23	=23	=23	=23	=23	=23	=23	=23	=23	=23	=23	=23	=23	=23	=23	=23
4A\	.	4a\	.	4f#/	.	(4ff#\	.	.	.	.	.	.	.	.	.	.	.	.
4G\	.	4g\	.	4e/	.	4ee\)	.	.	.	.	.	.	.	.	.	.	.	.
4r	.	4r	.	4g/	.	4gg'\	.	.	.	.	.	.	.	.	.	.	.	.
=24	=24	=24	=24	=24	=24	=24	=24	=24	=24	=24	=24	=24	=24	=24	=24	=24	=24	=24
4A\	.	4a\	.	4f#/	.	4ff#\	.	.	.	.	.	.	.	.	.	.	.	.
4G\	.	4g\	.	4e/	.	4ee\	.	.	.	.	.	.	.	.	.	.	.	.
!	!	!	!	!	!LO:DY:b:t=for	!	!	!	!	!	!	!	!	!	!	!	!	!
4r	.	4r	.	8cc#\L	f	(8ee\L	.	.	.	.	.	.	.	.	.	.	.	.
.	.	.	.	8dd\J	.	8ff#\J)	.	.	.	.	.	.	.	.	.	.	.	.
=25	=25	=25	=25	=25	=25	=25	=25	=25	=25	=25	=25	=25	=25	=25	=25	=25	=25	=25
!	!LO:DY:b:t=for	!	!LO:DY:b:t=fo	!	!	!	!LO:DY:b:t=for	!	!	!	!LO:TX:t=P:problem=brak taktu	!	!	!	!	!	!	!LO:DY:b:t=fo&colon;
4A\	f	4A\	f	4ee\	.	4gg'\	f	4a/	.	4ee\	2.ryy	.	4gg\	.	4ee\	.	4gg\	f
4c#\	.	4c#\	.	4ee\	.	4gg'\	.	4a/	.	4ee\	.	.	4gg\	.	4ee\	.	4gg\	.
4e\	.	4e\	.	4ee\	.	4gg'\	.	4a/	.	4ee\	.	.	4ff#\	.	4ee\	.	4gg\	.
=26	=26	=26	=26	=26	=26	=26	=26	=26	=26	=26	=26	=26	=26	=26	=26	=26	=26	=26
*	*	*	*	*^	*	*	*	*	*	*	*	*	*	*	*	*	*	*
*	*	*	*	*	*2\right	*	*	*	*	*	*2\right	*2\right	*	*2\right	*	*2\right	*	*2\right	*
4c#\	.	4c#/	.	2ee/	2cc#\	.	2gg 2a\	.	2a/	.	2ee\	2ee\	.	2gg\	.	2ee\	.	2gg\	.
4A\	.	4A/	.	.	.	.	.	.	.	.	.	.	.	.	.	.	.	.	.
4d\	.	4d/	.	4dd\	4ryy	.	4ff#\	.	4dd\	.	4ff#\	4dd\	.	4ff#\	.	4dd\	.	4ff#\	.
*	*	*	*	*v	*v	*	*	*	*	*	*	*	*	*	*	*	*	*	*
=27	=27	=27	=27	=27	=27	=27	=27	=27	=27	=27	=27	=27	=27	=27	=27	=27	=27	=27
.	.	.	.	8qqa/	.	16qqff#/	.	.	.	.	.	.	.	.	.	.	.	.
4G\	.	4g\	.	4g/	.	4ee\	.	4ee\	.	4gg\	8a/L	.	8ff#\L	.	8a/L	.	8ff#\L	.
.	.	.	.	.	.	.	.	.	.	.	8g/J	.	8ee\J	.	8g/J	.	8ee\J	.
4A\	.	4a\	.	4f#/	.	4dd\	.	4dd\	.	4ff#\	4f#/	.	4dd\	.	4f#/	.	4dd\	.
4AA/	.	4A/	.	4e/	.	4cc#\	.	4a/	.	4ee\	4e/	.	4cc#\	.	4e/	.	4cc#\	.
!	!	!LO:LB:g=original	!	!	!	!	!	!	!	!	!LO:LB:g=original	!	!	!	!LO:LB:g=original	!	!	!
=28	=28	=28	=28	=28	=28	=28	=28	=28	=28	=28	=28	=28	=28	=28	=28	=28	=28	=28
4D\	.	4d\	.	4f#/	.	4dd 4f#/	.	4f#/	.	4dd\	4f#/	.	4dd\	.	4f#/	.	4dd\	.
4DD/	.	4r	.	4r	.	4r	.	4r	.	4r	4r	.	4r	.	4r	.	4r	.
!	!	!	!	!	!LO:DY:b:t=pia	!	!LO:DY:b:t=pia	!	!	!	!	!	!	!	!	!	!	!
4r	.	4r	.	4A/	p	4a/	p	4r	.	4r	4r	.	4r	.	4r	.	4r	.
!	!	!	!	!LO:LB:g=original	!	!	!	!	!	!LO:LB:g=original	!	!	!	!	!	!	!LO:LB:g=original	!
=29	=29	=29	=29	=29	=29	=29	=29	=29	=29	=29	=29	=29	=29	=29	=29	=29	=29	=29
!	!LO:DY:b:t=pia	!	!	!	!	!	!	!	!	!	!	!	!	!	!	!	!	!
4d\	p	4f#\	.	4d/	.	4dd\	.	1.r	.	1.r	1.r	.	1.r	.	1.r	.	1.r	.
4D/	.	4f#\	.	4d/	.	4dd\	.	.	.	.	.	.	.	.	.	.	.	.
4r	.	4r	.	8f#/L	.	8dd\L	.	.	.	.	.	.	.	.	.	.	.	.
.	.	.	.	8g/J	.	8gg\J	.	.	.	.	.	.	.	.	.	.	.	.
!	!	!	!	!	!	!LO:LB:g=original	!	!	!	!	!	!	!	!	!	!	!	!
=30	=30	=30	=30	=30	=30	=30	=30	=30	=30	=30	=30	=30	=30	=30	=30	=30	=30	=30
4F#\	.	4f#\	.	4a/	.	4aa\	.	.	.	.	.	.	.	.	.	.	.	.
4D\	.	4a\	.	4f#/	.	4ff#\	.	.	.	.	.	.	.	.	.	.	.	.
4F#\	.	4f#\	.	4d/	.	4dd\	.	.	.	.	.	.	.	.	.	.	.	.
!LO:LB:g=original	!	!	!	!	!	!	!	!	!	!	!	!	!	!	!	!	!	!
=31	=31	=31	=31	=31	=31	=31	=31	=31	=31	=31	=31	=31	=31	=31	=31	=31	=31	=31
!	!LO:DY:b:t=for&colon;	!	!	!	!LO:DY:a:t=for	!	!	!	!	!	!	!	!	!	!	!	!	!
4E\	f	4g\	.	4A/	f	4a/	.	4r	.	4r	4r	.	4r	.	4r	.	4r	.
4AA/	.	4g\	.	4c#/	.	4cc#/	.	4a/	.	4ee\	4ee\	.	4gg\	.	4ee\	.	4gg\	.
4AA/	.	4g\	.	4c#/	.	4cc#/	.	4a/	.	4ee\	4ee\	.	4gg\	.	4ee\	.	4gg\	.
=32	=32	=32	=32	=32	=32	=32	=32	=32	=32	=32	=32	=32	=32	=32	=32	=32	=32	=32
4D\	.	4f#\	.	4d/	.	4dd\	.	4dd\	.	4ff#\	4dd\	.	4ff#\	.	4dd\	.	4ff#\	.
4d\	.	4r	.	4r	.	4r	.	4r	.	4r	4r	.	4r	.	4r	.	4r	.
!	!	!	!	!LO:LB:g=original	!	!LO:LB:g=original	!	!	!	!	!	!	!LO:LB:g=original	!	!	!	!	!
=:|!	=:|!	=:|!	=:|!	=:|!	=:|!	=:|!	=:|!	=:|!	=:|!	=:|!	=:|!	=:|!	=:|!;;	=:|!	=:|!	=:|!	=:|!	=:|!
*>C	*>C	*>C	*>C	*>C	*>C	*>C	*>C	*>C	*>C	*>C	*>C	*>C	*>C	*>C	*>C	*>C	*>C	*>C
*clefF4	*	*clefC3	*	*clefG2	*	*clefG2	*	*clefG2	*	*	*clefG2	*	*clefG2	*	*clefG2	*	*clefG2	*
*k[cnf#]	*	*k[f#cn]	*	*k[f#cn]	*	*k[f#cn]	*	*k[f#c#]	*	*	*k[f#]	*	*k[f#]	*	*k[f#]	*	*k[c#f#]	*
*M3/4	*	*M3/4	*	*M3/4	*	*M3/4	*	*M3/4	*	*	*	*	*M3/4	*	*M2/4	*	*M3/4	*
!LO:TX:a:rj:t=Trio	!	!LO:TX:a:rj:t=Trio	!	!LO:TX:a:rj:t=Trio	!LO:DY:a:t=pia	!LO:TX:a:t=Trio	!	!LO:TX:a:t=Trio	!	!LO:TX:a:t=Trio	!LO:TX:a:rj:t=Trio	!	!LO:TX:a:rj:t=Trio	!	!LO:TX:a:t=Trio	!	!LO:TX:a:rj:t=Trio	!
!	!	!	!	!LO:TX:t=P:problem=znaki f# ccn	!	!LO:TX:t=P:problem=znaki f# ccn	!	!	!	!	!	!	!	!	!	!	!	!
4r	.	4r	.	4G/	p	4g/	.	4r	.	4r	4r	.	4r	.	4r	.	4r	.
=33	=33	=33	=33	=33	=33	=33	=33	=33	=33	=33	=33	=33	=33	=33	=33	=33	=33	=33
!	!LO:DY:b:t=pia	!	!	!	!	!	!LO:DY:b:rj:t=pia	!	!	!	!LO:TX:a:t=3	!	!	!	!LO:TX:a:t=3:color=blue	!	!LO:TX:a:t=3:color=blue	!
4G\	p	2b\	.	2d/	.	2dd\	p	1.r	.	1.r	1.r	.	1.r	.	1.r	.	1.r	.
4GG/	.	.	.	.	.	.	.	.	.	.	.	.	.	.	.	.	.	.
4r	.	4cc\	.	4e/	.	4ee\	.	.	.	.	.	.	.	.	.	.	.	.
=34	=34	=34	=34	=34	=34	=34	=34	=34	=34	=34	=34	=34	=34	=34	=34	=34	=34	=34
4GG/	.	4b\	.	4d/	.	4dd\	.	.	.	.	.	.	.	.	.	.	.	.
4G\	.	4g\	.	4B/	.	4b\	.	.	.	.	.	.	.	.	.	.	.	.
4B\	.	4b\	.	4G/	.	4g/	.	.	.	.	.	.	.	.	.	.	.	.
!	!	!LO:LB:g=original	!	!	!	!	!	!	!	!	!	!	!	!	!	!	!	!
=35	=35	=35	=35	=35	=35	=35	=35	=35	=35	=35	=35	=35	=35	=35	=35	=35	=35	=35
4A\	.	4a\	.	4c/	.	4cc/	.	2.r	.	2.r	2.r	.	2.r	.	2.r	.	2.r	.
4F#\	.	4f#\	.	4A/	.	4a/	.	.	.	.	.	.	.	.	.	.	.	.
4D\	.	4a\	.	4A/	.	4f#/	.	.	.	.	.	.	.	.	.	.	.	.
=36	=36	=36	=36	=36	=36	=36	=36	=36	=36	=36	=36	=36	=36	=36	=36	=36	=36	=36
4G\	.	4g\	.	8G/L	.	8g/L	.	4r	.	4r	4r	.	4r	.	4r	.	4r	.
.	.	.	.	8A/	.	8a/	.	.	.	.	.	.	.	.	.	.	.	.
!	!	!	!	!	!	!	!	!	!	!	!	!LO:DY:b:t=p&colon;	!	!LO:DY:b:t=pia	!LO:SIC:v:s=4dd\	!	!	!LO:DY:b:t=pia
4GG/	.	8g\L	.	8B/	.	8b/	.	4d/	.	4dd\	4b\	p	4gg\	p	4ee\	.	4gg\	p
.	.	8a\J	.	8c/J	.	8cc/J	.	.	.	.	.	.	.	.	.	.	.	.
!	!	!	!	!	!	!	!	!	!	!	!	!	!	!	!LO:SIC:v:s=4dd\	!	!	!
4G\	.	4b\	.	4d/	.	4dd\	.	4d/	.	4dd\	4b\	.	4gg\	.	4ee\	.	4gg\	.
!LO:LB:g=original	!	!	!	!LO:LB:g=original	!	!	!	!	!	!	!	!	!	!	!	!	!	!
=37	=37	=37	=37	=37	=37	=37	=37	=37	=37	=37	=37	=37	=37	=37	=37	=37	=37	=37
!	!	!	!	!	!	!	!	!	!	!	!	!	!	!	!LO:TX:a:t=2:color=blue	!	!LO:TX:a:t=2:color=blue	!
4G\	.	2b\	.	2d/	.	2dd\	.	1.r	.	1.r	1.r	.	1.r	.	1.r	.	1.r	.
4GG/	.	.	.	.	.	.	.	.	.	.	.	.	.	.	.	.	.	.
4r	.	4cc\	.	4e/	.	4ee\	.	.	.	.	.	.	.	.	.	.	.	.
=38	=38	=38	=38	=38	=38	=38	=38	=38	=38	=38	=38	=38	=38	=38	=38	=38	=38	=38
4GG/	.	4b\	.	4d/	.	4dd\	.	.	.	.	.	.	.	.	.	.	.	.
4G\	.	4g\	.	4B/	.	4b\	.	.	.	.	.	.	.	.	.	.	.	.
4B\	.	4b\	.	4G/	.	4g\	.	.	.	.	.	.	.	.	.	.	.	.
!	!	!	!	!	!	!LO:LB:g=original	!	!LO:LB:g=original	!	!	!	!	!	!	!	!	!	!
=39	=39	=39	=39	=39	=39	=39	=39	=39	=39	=39	=39	=39	=39	=39	=39	=39	=39	=39
4A\	.	4a\	.	4c/	.	4cc\	.	4r	.	4r	4r	.	4r	.	4r	.	4r	.
!	!	!	!	!	!	!	!	!	!	!	!	!	!	!LO:DY:b:t=pia	!	!	!	!
4F#\	.	4f#\	.	4A/	.	4a\	.	4d/	.	4dd\	4a\	.	4cc\	p	4ee\	.	4ccc#\	.
4D\	.	4a\	.	4A/	.	4f#/	.	4d/	.	4dd\	4a\	.	4cc\	.	4ee\	.	4ccc#\	.
=40	=40	=40	=40	=40	=40	=40	=40	=40	=40	=40	=40	=40	=40	=40	=40	=40	=40	=40
4G\	.	4g\	.	4B/	.	4g/	.	4d/	.	4dd\	4g\	.	4b\	.	4dd\	.	4bb\	.
4GG/	.	4r	.	4r	.	4r	.	4r	.	4r	4r	.	4r	.	4r	.	4r	.
!	!	!	!	!	!	!	!	!	!	!	!LO:LB:g=original	!	!	!	!	!	!	!
=:|!|:	=:|!|:	=:|!|:	=:|!|:	=:|!|:	=:|!|:	=:|!|:	=:|!|:	=:|!|:	=:|!|:	=:|!|:	=:|!|:	=:|!|:	=:|!|:	=:|!|:	=:|!|:	=:|!|:	=:|!|:	=:|!|:
*>D	*>D	*>D	*>D	*>D	*>D	*>D	*>D	*>D	*>D	*>D	*>D	*>D	*>D	*>D	*>D	*>D	*>D	*>D
!	!	!	!	!	!LO:DY:b:t=pia	!	!	!	!	!	!	!	!	!	!	!	!	!
4r	.	4r	.	4dd\	p	4dd\	.	4r	.	4ryy	4r	.	4r	.	4r	.	4r	.
=41	=41	=41	=41	=41	=41	=41	=41	=41	=41	=41	=41	=41	=41	=41	=41	=41	=41	=41
*2\right	*	*	*	*	*	*	*	*	*	*	*	*	*	*	*	*	*	*
!	!	!	!	!	!	!	!	!	!	!	!	!	!	!	!LO:TX:a:t=1:color=blue	!	!	!
2d\	.	2d\	.	2ff#\	.	2aa\	.	2.r	.	2.ryy	2.r	.	2.r	.	2.r	.	2.r	.
!	!	!LO:SIC:v:s=4c#\	!	!	!	!	!	!	!	!	!	!	!	!	!	!	!	!
4c#\	.	4c\	.	4gg\	.	4bb\	.	.	.	.	.	.	.	.	.	.	.	.
!	!	!	!	!	!	!	!	!	!	!	!	!	!	!	!LO:LB:g=original	!	!LO:LB:g=original	!
=42	=42	=42	=42	=42	=42	=42	=42	=42	=42	=42	=42	=42	=42	=42	=42	=42	=42	=42
4d\	.	4d\	.	4ff#\	.	4aa\	.	4r	.	4r	4r	.	4r	.	4r	.	4r	.
4r	.	4r	.	4r	.	4r	.	4r	.	4r	4r	.	4r	.	4r	.	4r	.
!	!	!	!	!	!	!	!	!	!LO:DY:b:t=p&colon;	!	!	!	!	!	!	!	!	!
4r	.	4r	.	4f#/	.	4a/	.	4ff#\	p	4aa\	4ff#\	.	4aa\	.	4ff#\	.	4aa\	.
=43	=43	=43	=43	=43	=43	=43	=43	=43	=43	=43	=43	=43	=43	=43	=43	=43	=43	=43
*	*	*	*	*	*	*	*	*2\right	*	*	*	*	*	*	*	*	*	*
4D\	.	2.A/	.	2f#/	.	2a/	.	2ff#\	.	2aa\	4ff#\	.	2aa\	.	2ff#\	.	2aa\	.
4F#\	.	.	.	.	.	.	.	.	.	.	4ff#\	.	.	.	.	.	.	.
4A\	.	.	.	4e/	.	4g/	.	4ee\	.	4gg\	4ee\	.	4gg\	.	4ee\	.	4gg\	.
!	!	!	!	!	!	!	!	!	!	!	!	!	!LO:LB:g=original	!	!	!	!	!
=44	=44	=44	=44	=44	=44	=44	=44	=44	=44	=44	=44	=44	=44	=44	=44	=44	=44	=44
4d\	.	4A/	.	4e/	.	4g/	.	4ee\	.	4gg\	4ee\	.	4gg\	.	4ee\	.	4gg\	.
4D/	.	4A/	.	4d/	.	4f#/	.	4dd\	.	4ff#\	4dd\	.	4ff#\	.	4dd\	.	4ff#\	.
4r	.	4r	.	4G/	.	4g/	.	4r	.	4r	4r	.	4r	.	4r	.	4r	.
!LO:LB:g=original	!	!LO:LB:g=original	!	!LO:LB:g=original	!	!	!	!	!	!	!	!	!	!	!	!	!	!
=45	=45	=45	=45	=45	=45	=45	=45	=45	=45	=45	=45	=45	=45	=45	=45	=45	=45	=45
!	!	!	!	!	!	!	!	!	!	!	!	!	!	!	!LO:TX:a:t=2:color=blue	!	!LO:TX:a:t=2:color=blue	!
4G\	.	2b\	.	2d/	.	2dd\	.	1.r	.	1.r	1.r	.	1.r	.	1.r	.	1.r	.
4GG/	.	.	.	.	.	.	.	.	.	.	.	.	.	.	.	.	.	.
4r	.	4cc\	.	4e/	.	4ee\	.	.	.	.	.	.	.	.	.	.	.	.
=46	=46	=46	=46	=46	=46	=46	=46	=46	=46	=46	=46	=46	=46	=46	=46	=46	=46	=46
4GG/	.	4b\	.	4d/	.	4dd\	.	.	.	.	.	.	.	.	.	.	.	.
4G\	.	4g\	.	4B/	.	4b\	.	.	.	.	.	.	.	.	.	.	.	.
4B\	.	4b\	.	4G/	.	4g/	.	.	.	.	.	.	.	.	.	.	.	.
!	!	!	!	!	!	!LO:LB:g=original	!	!	!	!	!	!	!	!	!	!	!	!
=47	=47	=47	=47	=47	=47	=47	=47	=47	=47	=47	=47	=47	=47	=47	=47	=47	=47	=47
4A\	.	2a\	.	2c/	.	2cc\	.	4r	.	4r	4r	.	4r	.	4r	.	4r	.
4F#\	.	.	.	.	.	.	.	4d/	.	4dd\	4a\	.	4ccnX\	.	4aa\	.	4ccc#\	.
4D\	.	4f#\	.	4A/	.	8a/L	.	4d/	.	4dd\	4a\	.	4cc\	.	8ff#\L	.	8aa\L	.
.	.	.	.	.	.	8f#/J	.	.	.	.	.	.	.	.	8dd\J	.	8ff#\J	.
=48	=48	=48	=48	=48	=48	=48	=48	=48	=48	=48	=48	=48	=48	=48	=48	=48	=48	=48
4G\	.	4g\	.	4B/	.	4g/	.	4d/	.	4dd\	4g\	.	4b\	.	4b\	.	4gg\	.
!LO:TX:b:i:t=Menuetto Da Capo.	!	!LO:TX:b:i:t=Menuetto Da Capo	!	!LO:TX:b:i:t=Menuetto Da Capo	!	!LO:TX:b:i:t=Menuetto Da Capo	!	!	!	!	!LO:TX:b:i:t=Manuetti da Capo	!	!	!	!LO:TX:b:i:t=Menuett Da Capo	!	!LO:TX:b:i:t=Menuette Da Capo	!
4GG/	.	4r	.	4r	.	4r	.	4r	.	4r	4r	.	4r	.	4r	.	4r	.
=:|!	=:|!	=:|!	=:|!	=:|!	=:|!	=:|!	=:|!	=:|!	=:|!	=:|!	=:|!	=:|!	=:|!;	=:|!	=:|!	=:|!	=:|!;	=:|!
*-	*-	*-	*-	*-	*-	*-	*-	*-	*-	*-	*-	*-	*-	*-	*-	*-	*-	*-
!!!system-decoration: [(g1)][(g2)][(g3)]
!!!ENC: Berenika Jozajtis
!!!END: 2020-08-22
!!!ENC: Marta Lawrence
!!!END: 2022-03-08
